src/icons/icons_set_02/019-oeuil.svg

<svg height="50" viewBox="0 0 50 50" width="50" xmlns="http://www.w3.org/2000/svg"><path d="m31.4121002 6.59067295c1.0048449 1.55941928 1.5878998 3.41628325 1.5878998 5.40932705 0 5.5228475-4.4771525 10-10 10s-10-4.4771525-10-10c0-1.9902086.5813972-3.8446245 1.583614-5.40267015-3.8504359 1.79606947-7.10586575 4.80379505-9.25563284 8.65582495 3.59567322 6.4428563 10.28449144 10.5237306 17.67701884 10.5237306s14.0813456-4.0808743 17.6770188-10.5237306c-2.1524252-3.8567929-5.4132492-6.86719223-9.2699186-8.66248185zm-8.4071002-5.86124887c9.2700394 0 17.6019272 5.33929342 21.7281148 13.63286292l.4432214.8908678-.4432214.8908678c-4.1261876 8.2935694-12.4580754 13.6328628-21.7281148 13.6328628s-17.60192718-5.3392934-21.72811478-13.6328628l-.44322142-.8908678.44322142-.8908678c4.1261876-8.2935695 12.45807538-13.63286292 21.72811478-13.63286292zm-4.005 14.27057592c2.209139 0 4-1.790861 4-4s-1.790861-4-4-4-4 1.790861-4 4 1.790861 4 4 4z" transform="translate(1.995 9.746845)"/></svg>

<?xml version="1.0" encoding="UTF-8"?>
<svg width="50px" height="50px" viewBox="0 0 50 50" version="1.1" xmlns="http://www.w3.org/2000/svg" xmlns:xlink="http://www.w3.org/1999/xlink">
    <!-- Generator: Sketch 52.4 (67378) - http://www.bohemiancoding.com/sketch -->
    <title>019-oeuil</title>
    <desc>Created with Sketch.</desc>
    <g id="019-oeuil" stroke="none" stroke-width="1" fill="none" fill-rule="evenodd">
        <g id="Group" transform="translate(1.995000, 9.746845)" fill="#000000" fill-rule="nonzero">
            <g id="028-oeuil">
                <g id="ICONSET-01">
                    <g id="028-oeuil">
                        <path d="M31.4121002,6.59067295 C32.4169451,8.15009223 33,10.0069562 33,12 C33,17.5228475 28.5228475,22 23,22 C17.4771525,22 13,17.5228475 13,12 C13,10.0097914 13.5813972,8.1553755 14.583614,6.59732985 C10.7331781,8.39339932 7.47774825,11.4011249 5.32798116,15.2531548 C8.92365438,21.6960111 15.6124726,25.7768854 23.005,25.7768854 C30.3975274,25.7768854 37.0863456,21.6960111 40.6820188,15.2531548 C38.5295936,11.3963619 35.2687696,8.38596257 31.4121002,6.59067295 Z M23.005,0.729424077 C32.2750394,0.729424077 40.6069272,6.0687175 44.7331148,14.362287 L45.1763362,15.2531548 L44.7331148,16.1440226 C40.6069272,24.437592 32.2750394,29.7768854 23.005,29.7768854 C13.7349606,29.7768854 5.40307282,24.437592 1.27688522,16.1440226 L0.833663802,15.2531548 L1.27688522,14.362287 C5.40307282,6.0687175 13.7349606,0.729424077 23.005,0.729424077 Z M19,15 C21.209139,15 23,13.209139 23,11 C23,8.790861 21.209139,7 19,7 C16.790861,7 15,8.790861 15,11 C15,13.209139 16.790861,15 19,15 Z" id="Combined-Shape"></path>
                    </g>
                </g>
            </g>
        </g>
    </g>
</svg>
